config/expand/iconfont/module-menu/module-peihu_active.svg

<?xml version="1.0" encoding="UTF-8"?>
<svg width="19px" height="21px" viewBox="0 0 19 21" version="1.1" xmlns="http://www.w3.org/2000/svg" xmlns:xlink="http://www.w3.org/1999/xlink">
    <!-- Generator: Sketch 53 (72520) - https://sketchapp.com -->
    <title>peihuActive</title>
    <desc>Created with Sketch.</desc>
    <defs>
        <linearGradient x1="14.3387761%" y1="50%" x2="100%" y2="50%" id="linearGradient-1">
            <stop stop-color="#FFFFFF" offset="0%"></stop>
            <stop stop-color="#FFFFFF" offset="100%"></stop>
        </linearGradient>
        <linearGradient x1="14.3387761%" y1="50%" x2="100%" y2="50%" id="linearGradient-2">
            <stop stop-color="#FFFFFF" offset="0%"></stop>
            <stop stop-color="#FFFFFF" offset="100%"></stop>
        </linearGradient>
    </defs>
    <g id="Page-2" stroke="none" stroke-width="1" fill="none" fill-rule="evenodd">
        <g id="图标" transform="translate(-795.000000, -738.000000)">
            <g id="peihuActive" transform="translate(795.000000, 738.000000)">
                <polygon id="Path" fill="url(#linearGradient-1)" points="8.33321459 7 8.33321459 9.33334075 6 9.33334075 6 11.6668596 8.33321459 11.6668596 8.33321459 14 10.6667854 14 10.6667854 11.6668819 13 11.6668819 13 9.33334075 10.6667631 9.33334075 10.6667631 7"></polygon>
                <path d="M18.398679,3.56686125 L17.6668734,3.45614623 C13.4305684,2.81538603 10.5917257,0.412588943 10.5630137,0.388329108 L10.4861235,0.322183487 C10.2145036,0.120333074 9.87213467,0 9.50010198,0 C9.10264316,0 8.74171456,0.138259589 8.46340954,0.364584526 L8.42076073,0.40228388 C8.3574447,0.457351558 5.54096888,2.86706163 1.35229817,3.45361291 L0.593706802,3.55979799 C0.251904455,3.64586673 0,3.9397757 0,4.28877382 L0,9.20347285 C0,13.308881 2.56896768,16.7557741 8.58850064,20.7263791 C8.84672763,20.8985381 9.15981795,21 9.50010198,21 C9.83349693,21 10.1418057,20.9021448 10.3969734,20.7365339 L10.404633,20.7314672 C16.4296953,16.7579854 19,13.3110708 19,9.20349432 L19,4.28877382 C19.0000227,3.93780056 18.7425888,3.64840006 18.398679,3.56686125 Z M17,9.20136999 C17,12.2138164 15.775562,14.8408154 9.47956153,19 C3.18374128,14.8408154 2,12.2138164 2,9.20136999 L2,5.25421999 C6.77110355,4.58483498 9.47956153,2 9.47956153,2 C9.47956153,2 12.2781179,4.53830774 17,5.25421999 L17,9.20136999 Z" id="Shape" fill="url(#linearGradient-2)" fill-rule="nonzero"></path>
            </g>
        </g>
    </g>
</svg>

<svg width="19" height="21" xmlns="http://www.w3.org/2000/svg"><path d="M8.333 7v2.333H6v2.334h2.333V14h2.334v-2.333H13V9.333h-2.333V7z"/><path d="M18.399 3.567l-.732-.11C13.43 2.814 10.592.412 10.563.387l-.077-.066A1.649 1.649 0 009.5 0c-.397 0-.758.138-1.037.365l-.042.037c-.064.055-2.88 2.465-7.069 3.052l-.758.106A.764.764 0 000 4.289v4.914c0 4.106 2.569 7.553 8.589 11.523.258.173.57.274.911.274.333 0 .642-.098.897-.263l.008-.006C16.43 16.758 19 13.311 19 9.203V4.29c0-.351-.257-.64-.601-.722zM17 9.2c0 3.013-1.224 5.64-7.52 9.799C3.184 14.84 2 12.214 2 9.201V5.254C6.771 4.584 9.48 2 9.48 2S12.278 4.538 17 5.254v3.947z"/></svg>
